src/assets/outline/ProgrammingArrow.svg

<?xml version="1.0" encoding="UTF-8"?>
<svg width="24" height="24" viewBox="0 0 24 24" xmlns="http://www.w3.org/2000/svg">
 <path d="m19 16.75c-0.41 0-0.75-0.34-0.75-0.75v-9.5c0-0.69-0.56-1.25-1.25-1.25h-4.5c-0.41 0-0.75-0.34-0.75-0.75s0.34-0.75 0.75-0.75h4.5c1.52 0 2.75 1.23 2.75 2.75v9.5c0 0.41-0.34 0.75-0.75 0.75z"/>
 <path d="m15 7.7499c-0.17 0-0.34-0.06-0.48-0.17l-3-2.5c-0.17-0.14-0.27-0.35-0.27-0.58s0.1-0.43 0.27-0.58l3-2.5c0.32-0.27 0.79-0.22 1.06 0.1s0.22 0.79-0.1 1.06l-2.31 1.92 2.31 1.92c0.32 0.27 0.36 0.73999 0.1 1.06-0.15 0.18-0.37 0.27001-0.58 0.27001z"/>
 <path d="m5 16.75c-0.41 0-0.75-0.34-0.75-0.75v-7c0-0.41 0.34-0.75 0.75-0.75s0.75 0.34 0.75 0.75v7c0 0.41-0.34 0.75-0.75 0.75z"/>
 <path d="m5.25 9.25c-2.21 0-4-1.79-4-4s1.79-4 4-4 4 1.79 4 4-1.79 4-4 4zm0-6.5c-1.38 0-2.5 1.12-2.5 2.5s1.12 2.5 2.5 2.5 2.5-1.12 2.5-2.5-1.12-2.5-2.5-2.5z"/>
 <path d="m5 22.75c-2.07 0-3.75-1.68-3.75-3.75s1.68-3.75 3.75-3.75 3.75 1.68 3.75 3.75-1.68 3.75-3.75 3.75zm0-6c-1.24 0-2.25 1.01-2.25 2.25s1.01 2.25 2.25 2.25 2.25-1.01 2.25-2.25-1.01-2.25-2.25-2.25z"/>
 <path d="m19 22.75c-2.07 0-3.75-1.68-3.75-3.75s1.68-3.75 3.75-3.75 3.75 1.68 3.75 3.75-1.68 3.75-3.75 3.75zm0-6c-1.24 0-2.25 1.01-2.25 2.25s1.01 2.25 2.25 2.25 2.25-1.01 2.25-2.25-1.01-2.25-2.25-2.25z"/>
</svg>

<svg width="24" height="24" viewBox="0 0 24 24"  xmlns="http://www.w3.org/2000/svg">
<path d="M19 16.75C18.59 16.75 18.25 16.41 18.25 16V6.5C18.25 5.81 17.69 5.25 17 5.25H12.5C12.09 5.25 11.75 4.91 11.75 4.5C11.75 4.09 12.09 3.75 12.5 3.75H17C18.52 3.75 19.75 4.98 19.75 6.5V16C19.75 16.41 19.41 16.75 19 16.75Z" />
<path d="M15 7.74993C14.83 7.74993 14.66 7.68993 14.52 7.57993L11.52 5.07993C11.35 4.93993 11.25 4.72993 11.25 4.49993C11.25 4.26993 11.35 4.06993 11.52 3.91993L14.52 1.41993C14.84 1.14993 15.31 1.19993 15.58 1.51993C15.85 1.83993 15.8 2.30993 15.48 2.57993L13.17 4.49993L15.48 6.41993C15.8 6.68993 15.84 7.15992 15.58 7.47992C15.43 7.65992 15.21 7.74993 15 7.74993Z" />
<path d="M5 16.75C4.59 16.75 4.25 16.41 4.25 16V9C4.25 8.59 4.59 8.25 5 8.25C5.41 8.25 5.75 8.59 5.75 9V16C5.75 16.41 5.41 16.75 5 16.75Z" />
<path d="M5.25 9.25C3.04 9.25 1.25 7.46 1.25 5.25C1.25 3.04 3.04 1.25 5.25 1.25C7.46 1.25 9.25 3.04 9.25 5.25C9.25 7.46 7.46 9.25 5.25 9.25ZM5.25 2.75C3.87 2.75 2.75 3.87 2.75 5.25C2.75 6.63 3.87 7.75 5.25 7.75C6.63 7.75 7.75 6.63 7.75 5.25C7.75 3.87 6.63 2.75 5.25 2.75Z" />
<path d="M5 22.75C2.93 22.75 1.25 21.07 1.25 19C1.25 16.93 2.93 15.25 5 15.25C7.07 15.25 8.75 16.93 8.75 19C8.75 21.07 7.07 22.75 5 22.75ZM5 16.75C3.76 16.75 2.75 17.76 2.75 19C2.75 20.24 3.76 21.25 5 21.25C6.24 21.25 7.25 20.24 7.25 19C7.25 17.76 6.24 16.75 5 16.75Z" />
<path d="M19 22.75C16.93 22.75 15.25 21.07 15.25 19C15.25 16.93 16.93 15.25 19 15.25C21.07 15.25 22.75 16.93 22.75 19C22.75 21.07 21.07 22.75 19 22.75ZM19 16.75C17.76 16.75 16.75 17.76 16.75 19C16.75 20.24 17.76 21.25 19 21.25C20.24 21.25 21.25 20.24 21.25 19C21.25 17.76 20.24 16.75 19 16.75Z" />
</svg>
